X:1082
T:Auld Foula Reel, The
T:Da Auld Foula Reel
R:reel
D:The Silver Bow
O:Shetland
Z:id:hn-reel-1082
M:C|
L:1/8
K:A
E | FEAE FEFG | AFEC B,3E | FEAE FEFG | AFEC A,3 :|
e | fece AecA | cAec B3B | cAeA cAeA | cAeA a3B |
cAeA cAeA | cAeA B3B | cBAG AGFE | (3FGA EC A,3 ||

